X: 220
T: Yinian mang
L: 1/16
M: 2/4
K: G
d2 e g d2 e2 [I:setbarnb 1]| 
e2 d BA4 | 
d2 e g d2 e2 | 
e d c BA4 | 
A B d2 B d B A | 
B d B AG4 | 
A G A B D E G2 | 
E D B, A,D4 | 
G G D E G E G2 | 
A G A B D E G2 | 
E D B, A,D4 |]

@@@ Tune index: 9094
